svg/led_variant_outline.svg

<svg xmlns="http://www.w3.org/2000/svg" viewBox="0 0 24 24"><path d="M12 3a4 4 0 0 0-4 4v6H6v2h3v6h2v-6h2v6h2v-6h3v-2h-2V7a4 4 0 0 0-4-4m0 2a2 2 0 0 1 2 2v5h-4V7a2 2 0 0 1 2-2"/></svg>

<?xml version="1.0" encoding="UTF-8"?><!DOCTYPE svg PUBLIC "-//W3C//DTD SVG 1.1//EN" "http://www.w3.org/Graphics/SVG/1.1/DTD/svg11.dtd"><svg xmlns="http://www.w3.org/2000/svg" xmlns:xlink="http://www.w3.org/1999/xlink" version="1.1" id="mdi-led-variant-outline" width="24" height="24" viewBox="0 0 24 24"><path d="M12,3A4,4 0 0,0 8,7V13H6V15H9V21H11V15H13V21H15V15H18V13H16V7A4,4 0 0,0 12,3M12,5A2,2 0 0,1 14,7V12H10V7A2,2 0 0,1 12,5Z" /></svg>
